X:1
T: Bob with the Two Horns
C:
R:Reel
Q: 232
K:Gm
M:4/4
L:1/8
|:d2BG dd BG|cc AF f2ef|dc BA GB dg|dc BA BGG2|
d2BG dd BG|cc AF f2ef|dc BA GB dg|dc BA BGG2|
DG BG dG BG|cB AG FG AF|DG BG dG BG|de dc BG GF|
DG BG dG BG|cB AG FG AF|GA Bc dc dg|dc BA BGG2:|
